X:1
T:Valse Caprice
T:Valse - Caprice
T:Xavier Carlier
T:for  Piano 4 Hands
C:Xavier Carlier
%%score { ( 1 3 ) | ( 2 4 ) } { ( 5 8 ) | ( 6 7 ) }
L:1/8
Q:1/4=110
M:3/4
K:G
V:1 treble nm="Prima" snm="P"
V:3 treble 
V:2 treble 
V:4 treble 
V:5 bass nm="Secunda" snm="S"
V:8 bass 
V:6 bass 
V:7 bass 
V:1
!mp!"^Mouvement de Valse modere" [eg]3 [^cf] [cf]2 | z ^c (cdef) | [eg]3 [^cf] [cf]2 | %3
 z ^c (cdef) | ([eg][^cf]) [cf]2 z [eg] |"_cresc." ([eg][^cf]) [cf]2 z [eg] | %6
 ([eg][^cf]) z ([eg] [cf]) z |!<(! ([eg][^cf]) z ([eg] [cf]) z!<)! | [a=c']3!mf! [fb] [fb]2 | %9
 z f (fgab) | [ac']3 [fb] [fb]2 | z f (fgab) | ([ac'][fb]) [fb]2 z [ac'] | %13
 ([ac']"_cresc."[fb]) [fb]2 z [ac'] | ([ac'][fb]) z ([ac'] [fb]) z | ([ac'][fb])!<(! ^abc'(b!<)! | %16
!f! .[gbe']2) z2!p! g2- | g2 fga(g | .[egb]2) z2 e2- | e2 ^def(e | .[eg]2) (B^c^de | fgabe'c' | %22
 .b2) z2 f2- | f2 (^gaba | .d'2) (^^f^gag | .^c'2) (^f=gag | .=c'2) (^ef=gf | .b2) (=e^efe | %28
 .^a2) (^d=efe | .=a2) (^defe) |!<(! (^d^cBcde | fg^ga^ab!<)! |!f! .[=gbe']2) z2!p! g2- | %33
 g2 (fgag | .[egb]2) z2 e2- | e2 (^defe | .[eg]2)!<(! (B^c^de | fgabd'c'!<)! | %38
"_cresc." .b2) z2 f2- | f2!f! (f'g'd'e' | .f'2) .[e^c']2 .[f^a]2 | .[^a^c'f']2 (f'g'=d'e' | %42
 .f'2) .[e^c']2 .[f^a]2 | .[^a^c'f']2 (f'g'd'e' | .f'2)!<(! (f^g^ab | ^c'=d'e'f'^g'^a'!<)! | %46
!f! .b'2) !trill(!Tb4- | b2!<(! (^abc'c'!<)! |!f! .[gbe']2) z2!p! g2- | g2 fga(g | %50
 .[egb]2) z2 e2- | e2 ^def(e | .[eg]2)!<(! (B^c^de | fgabd'c'!<)! |!>(! .c'2) z2!>)! f2- | %55
 f2 (^gaba | .d'2) (^^f^gag | .^c'2) (^f=gag | .=c'2) (^efgf | .b2) (=e^efe | %60
 .^a2)"_cresc." (^d=efe | .=a2) (^defe) | (^d^c!<(!Bcde | fg^ga^ab!<)! |!f! .[=gbe']2) z2!p! g2- | %65
 g2 (fgag | .[egb]2) z2 e2- | e2 (^defe | .[eg]2)!<(! B^c^de | fgabd'c'!<)! | .b2 z2 f2- | %71
 f2!f! (f'g'd'e' | .g'2) .[e^c']2 .[f^a]2 | .[^a^c'f']2 (f'g'd'e' | .f'2) .[e^c']2 .[f^a]2 | %75
 .[^a^c'f']2 (f'g'd'e') | .f'2"_cresc." (f^g^ab |!<(! ^c'd'e'f'^g'^b'!<)! |!f! b'2) b4- | %79
"_dim." b6 |!p! (b4 =a2- | a2 =f4 | B4) (d2 |!<(! =f2 g2 a2)!<)! |!>(! (b4 a2-!>)! | a2 =f4 | %86
 B2)!<(! (d2 e2 | =f2 g2 b2 | ([c'e']4)!<)!"_cresc." [_bd']2- | [bd']2 [g_b]4 | [ce]4) ([eg]2 | %91
 [g_b]2 [ac']2 [bd']2 | ([c'e']4) [_bd']2- |"_poco a poco" [bd']2 [g_b]4 | %94
"_cresc." [ce]2) ([eg]2 [=fa]2 |!<(! [g_b]2 [ac']2 [^ae']2)!<)! |!f! ([=be'g']f'e'be'c' | %97
 .b2) .g2 .e2 | (bagecd | .B2) .e2 b2- |!<(! b(c'e'^d'b'a')!<)! | %101
!f!!8va(! [b^d'f'][bd'f'] [bd'f']4 |!<(! (b=c'e'^d'b'a')!<)! |!f! [b^d'f'][bd'f'] [bd'f']4 | %104
 !>![b^d'f'b']2 [bd'f'b']4 | !>![c'^d'f']2 [c'd'f']4 | !>![be'g']2 [be'g']4 | %107
 !>![c'e'a']2 !>![c'e'a']2 !>![^ae'f'^a']2 | !>![b^d'f'b']2!8va)! z2 z2 | z6 | %110
!<(!!8va(! (b^c'^d'e'f'g' | a'b'c''^c''d''^d''!<)! |!ff! .[g'b'e'']2)!8va)! z2!p! g2- | g2 fga(g | %114
 .[egb]2) z2 e2- | e2 ^def(e | .[eg]2)!<(! B^c^de | fgabd'c'!<)! | .b2 z2!>(! f2-!>)! | %119
 f2!<(! (^gaba!<)! | .d'2)!<(! (^^f^gag!<)! | .^c'2)!<(! (^f=gag!<)! | .=c'2)!<(! (^efgf!<)! | %123
 .b2)!<(! =e^efe!<)! | .^a2!<(! (^de^fe!<)! | .=a2) (^defe) |!<(! (^d^cBcde | fg^ga^a(b)!<)! | %128
!f! .[=gbe']2) z2!f! g2- | g2 fga(g | .[egb]2) z2 e2- | e2 ^def(e | .[eg]2)!<(! (B^c^de | %133
 fgabd'!<)!c' |!>(! .b2) z2 f2-!>)! | f2 (^abc'b) | .[b^d']2 .[af']2 .[bd']2 | %137
 .[ge']2 .[bg']2 .[ge']2 | .[bf']2!<(! .[^d'a']2 .[bf']2 | .[bg']2 .[e'b']2!<)! .[bg']2 | %140
 z2 (^d'c') .a2 | z2 (c'a) .f2 | z2 z2!ff!!8va(! .[b^d'b']2 | .[e'g'b'e'']2!8va)! z2 z2 | %144
[K:bass][Q:1/4=100]"^\n" (D,4[Q:1/4=95] E,2 | C,4 E,2 |[Q:1/4=80] B,,2) [C,C]2 [D,D]2 || %147
[K:C][K:treble][Q:1/4=110] [c'e']6- | [c'e']6- | [c'e']2!8va(! ([c'e']2 [e'a']2 | %150
 [a'c'']2 [e'a']2 [c'e']2-) | [c'e']6- | [c'e']6- | [c'e']2 ([e'-a']2 [e'c'']2- | %154
 c''2 a'2 c''2)!8va)! | (e'4 b2- | b2 ^c'2 ^d'2) | e'4 b2- | b2 (^f2 [f=c']2 | %159
 [e^g]2 [^fa]2 [gb]2- | [gb]2) z2 z2 | z6 | z2!mp! (c2 d2 | e6 | e4 a2 | a6-) | a2 (A2 B2 | %167
 c2!<(! d2 e2- | e2 e2 c'2)!<)! | c'6- | c'2 (b2!>(! a2 | ^g2!>)! a2 b2- | b2) (^f2 a2 | %173
 ^g2 a2 b2- | b2) ^F4 |!>(! [E^G]2 [^FA]2 [GB]2- | [GB]2!>)! z2 z2 | z6 | z6 | d6 | d4 ^g2 | ^g6 | %182
 z2!p! (^gaga) | .b2 (bc'b!<(!c') | .d'2 (d'e'f'a')!<)! |!mf!!8va(! (a'4 ^g'2-) | g'2!8va)! z2 z2 | %187
 z6 | z6 | z6 | z2"_cresc."!8va(! (^abab) | .^c'2 (c'd'c'd') |!<(! .e'2 (e'^f'g'b')!<)! | %193
!f! (b'4!>(! ^a'2-) | a'2!>)!!ff! (^e'^f' g'f') | .[d'^f'd'']2 z2 [d'f'b']2- | %196
 [d'f'b']2 (^e'^f'g'f') | .[d'^f'd'']2 z2 [d'f'b']2- | [d'f'b']2!8va)! z2 d'2 | %199
"_dim." (^c'2 ^g2) g2- | g2 (^gab^c' | ab^ga ^f2-) | f2 (^f^ga^c') | (b2 ^f2) f2- | f2 (^f^gab | %205
 ^ga^fg e2-) | e2!mp! z2 z2 | z6 |"_dim." [AB]6 | [^GB]6 | [AB]6 | [^GB]6- |"_dim." [GB]6 | z6 | %214
 z6 | z6 | z6 | z6 | z2!f!!8va(! (c'2 d'2 | e'6 | e'4 a'2 | a'6-) | a'2 (a2 b2 | c'2 d'2 e'2- | %224
!<(! e'2 e'2 c''2)!<)! | c''6- | c''2 b'2 a'2!8va)! |"_dim." e'4 b2- | (b2 ^c'2 ^d'2 | e'4) b2- | %230
 b2!<(! (^f2 [fc']2!<)! | [e^g]2!>(! [^fa]2 [gb]2-!>)! | [gb]2) z2 z2 | z6 | z6 | z6 | z6 | z6 | %238
 z2"_cresc." (^gaga) | .b2 (bc'bc') | .d'2 (d'e'f'a') |!8va(! a'4 ^g'2- | g'2!8va)! z2 z2 | z6 | %244
 z6 | z6 | z2"_cresc." (^abab) | .^c'2 (c'd'c'd') |!<(! .e'2!8va(! (e'^f'g'b')!<)! | %249
!f!!>(! (b'4 ^a'2)!>)! |[Q:1/4=115] z2"_animato" (^d'e'[Q:1/4=120]^f'^c'') | %251
[Q:1/4=125] (!>!^c''4 ^b'2) |[Q:1/4=130] z2"_cresc." (^e'^f'[Q:1/4=135]^g'^d'') | %253
[Q:1/4=140]!<(! !>!^d''4 ^^c''2!<)! |[Q:1/4=150] z2!f! !>!e''2 ^d''2 | z2 !>!=f''2 e''2 | %256
 z2 !>!^f''2 ^e''2!8va)! | z2 !>!^f2 ^e2 |"^a tempo"[Q:1/4=110] z6 | z6 | z6 | z6 | %262
!f! ([bd']3 ^c' c'2) | ([Bd]3 ^c c2) |"^poco a poco rall."[Q:1/4=105] z6[Q:1/4=100] | %265
[Q:1/4=95] z6 |!mp![Q:1/4=90] ([Bd]3 ^c c2) |[Q:1/4=85] z6 |[Q:1/4=80] z6 | z6 || %270
[K:G]!mp!"^Tempo I."[Q:1/4=110] [eg]3 [^cf] [cf]2 | z ^c (cdef) | [eg]3 [^cf] [cf]2 | z ^c (cdef) | %274
 ([eg][^cf]) [cf]2 z [eg] |"_cresc." ([eg][^cf]) [cf]2 z [eg] | ([eg][^cf]) z ([eg] [cf]) z | %277
 ([eg][^cf]) z ([eg] [cf]) z |!mf! [a=c']3 [^fb] [fb]2 | z f (fgab) | [ac']3 [fb] [fb]2 | %281
 z f (fgab) | ([ac'][fb]) [fb]2 z [ac'] | ([ac'][fb]) [fb]2 z [ac'] | %284
 ([ac'][fb]) z ([ac'] [fb]) z |!<(! ([ac'][fb]) ^abc'(b!<)! |!f! .[gbe']2) z2!p! g2- | g2 fga(g | %288
 .[egb]2) z2 e2- | e2 ^def(e | .[eg]2)!<(! (B^c^de | fgabd'!<)!c' |!>(! .b2) z2!>)! f2- | %293
 f2!<(! (^gaba!<)! | .d'2)!<(! (^^f^gag!<)! | .^c'2)!<(! (^f=gag!<)! | .=c'2)!<(! (^efgf!<)! | %297
 .b2)!<(! (=e^efe!<)! | .^a2) (^d=efe | .=a2) (^defe) | (^d^c!<(!Bcde | fg^ga^ab!<)! | %302
!f! .[gbe']2) z2!p! g2- | g2 fga(g | .[egb]2) z2 e2- | e2 ^def(e | .[eg]2) (B!<(!^c ^de | %307
 fg ab=d'c'!<)! | .b2) z2 f2- | f2 (f'g'd'e' | .f'2) .[e^c']2 .[f^a]2 | .[f^a^c'f']2 (f'g'd'e' | %312
 .f'2) .[e^c']2 .[f^a]2 | .[^a^c'f']2 (f'g'd'e' | f'2)"_cresc." (f^g^ab |!<(! ^c'd'e'f'^g'^a'!<)! | %316
!f! .b'2) b4- |"_dim." b6 |!p! (b4 a2- | a2 =f4 |!<(! B4) d2 | (=f2 g2!<)! a2 |!>(! b4 a2-!>)! | %323
 a2 =f4) |!<(! (B2 d2 e2 | =f2 g2 b2!<)! |!>(! [c'e']4 [_bd']2-!>)! | [bd']2 [g_b]4 | %328
 [ce]4) ([eg]2 | [g_b]2 [ac']2 [bd']2 | [c'e']4 [_bd']2- | [bd']2 [g_b]4) | %332
"_cresc." ([ce]2 [eg]2 [=fa]2 | [g_b]2 [ac']2 [^ae']2) |!f! ([be'g']f'e'bd'c' | .b2) .g2 .e2 | %336
 (bagecd | .B2) .e2 b2- |!<(! (bc'e'^d'b'a')!<)! |!f!!8va(! [b^d'f'][bd'f'] [bd'f']4 | %340
!<(! (bc'e'^d'b'a')!<)! |!f! [b^d'f'][bd'f'] [bd'f']4 | !>![b^d'f'b']2 [bd'f'b']4 | %343
 !>![c'^d'f']2 [c'd'f']4 | !>![be'g']2 [be'g']4 | !>![c'e'a']2 !>![c'e'a']2 !>![^ae'f'^a']2 | %346
 !>![b^d'f'b']2!8va)! z2 z2 | z6 |!f!!8va(! (b^c'!<(!^d'e'f'g' | a'b'c''^c''d''^d''!<)! | %350
!ff! .[g'b'e'']2)!8va)! z2!f! g2- | g2 fga(g | .[egb]2) z2 e2- | e2 ^def(e | [eg]2)!<(! (B^c^de | %355
 fgabd'!<)!c') |!>(! b2 z2 f2-!>)! | f2!<(! (^gaba!<)! | .d'2)!<(! (^^f^gag!<)! | %359
 .^c'2)!<(! (^f=gag!<)! | .=c'2)!<(! (^efgf!<)! | .b2)!<(! (=e^efe!<)! | .^a2)!<(! (^d=efe!<)! | %363
 .=a2) (^defe) | (^d^c!<(!Bcde | fg^ga^ab!<)! |!ff! .[=gbe']2) z2!f! g2- | g2 fga(g | %368
 .[egb]2) z2 e2- | e2 ^def(e | .[eg]2) (B!<(!^c^de | fgabd'c'!<)! |!>(! .b2) z2 f2-!>)! | %373
 f2 (^abc'b) | .[b^d']2 .[af']2 .[bd']2 | .[ge']2!8va(! .[bg']2 .[ge']2 | %376
 .[bf']2 .[^d'a']2!<(! .[bf']2 | .[bg']2 .[e'b']2 .[bg']2!8va)!!<)! | z2 (^d'c' a2) | z2 (c'a f2) | %380
 z2 z2!8va(! [b^d'b']2!8va)! |!f!"_un poco acceler."[Q:1/4=115] [gc'e']2 [gc'e']4 | %382
[Q:1/4=120] (e'^d'f'e')[Q:1/4=125] e'2 |!f![Q:1/4=132] [gc'e']2 [gc'e']4 | %384
[Q:1/4=139] (e'^d'f'e') e'2 |"^a tempo"!mp![Q:1/4=110] ([c'e']2 [ac']2 [fa]2 | [eg]2 [fa]2 [gb]2) | %387
 ([ac']2 [^df]3 [gb] | [fa]4) [eg]2 | %389
!f![Q:1/4=115] (g'f'"_poco acceler."[Q:1/4=120]a'g')[Q:1/4=125] g'2 | %390
[Q:1/4=130] [gc'e']2[Q:1/4=135] [gc'e']4 |!f![Q:1/4=140] (g'f'a'g') g'2 | %392
[Q:1/4=150] [gc'e']2 [gc'e']4 |!mp!"^a tempo"[Q:1/4=110] ([e'g']2 [c'e']2 [gc']2 | %394
 [gb]2 [eg]2 [fa]2 | [gb]2!f! ^a)bc'(b |"_acceler. e cresc."[Q:1/4=115] .[gbe']2) z2 g2- | %397
[Q:1/4=120] g2 fga(g |[Q:1/4=125] .[egb]2) z2 e2- |[Q:1/4=130] e2 ^def(e | %400
[Q:1/4=135] .[Beg]2) ^ABc(B |[Q:1/4=140] .e2) z2 z2 |[Q:1/4=150] z6 |[Q:1/4=160] z6 | %404
[Q:1/4=165] z2 .g2 z2 |[Q:1/4=170] .[gb]2 z2!<(! .[gbe']2 | z2!8va(! .[be'g']2 z2 | %407
 .[e'g'b']2 z2 .[e'g'b'e'']2!<)!!8va)! | z2!ff! [egbe']4 | [egbe']4 [egbe']2 |!ff! e6- | e6- | %412
 e2 z2 z2 |] %413
V:2
 z2 z2 z [F^A] | [F^A]2 z2 z2 | z2 z2 z [F^A] | [F^A]2 z2 z2 | z2 z [F^A] [FA]2 | %5
 z2 z [F^A] [FA]2 | z2 [F^A] z z [FA] | z2 [F^A] z z [FA] | z2 z2 z [B^d] | [B^d]2 z2 z2 | %10
 z2 z2 z [B^d] | [B^d]2 z2 z2 | z2 z [B^d] [Bd]2 | z2 z [B^d] [Bd]2 | z2 [B^d] z z [Bd] | %15
 z2 ^ABc(B | .[GBe]2) z2 z2 | z6 | .[EGB]2 z2 z2 | z6 | .[EGB]2 z2 z2 | z6 | .[FAB^d]2 z2 z2 | %23
 z2 (^GABA | .d2) (^^F^GAG | .^c2) (^F=GAG | .=c2) ^EF=GF | .B2 (=E^EFE | .^A2) (^D=EFE | %29
 .=A2) (^DEFE) | (^D^CB,CDE | FG^GA^AB | .[=GBe]2) z2 z2 | z6 | .[EGB]2 z2 z2 | z6 | %36
 .[EGB]2 z2 z2 | z6 | .[FBd]2 z2 z2 | z2 (fgde | .f2) .[E^c]2 .[F^A]2 | .[^A^cf]2 (fg=de | %42
 .f2) .[E^c]2 .[F^A]2 | .[^A^cf]2 (fgde | .f2) (F^G^AB | ^c=def^g^a | .b2) B4- | B2 (^ABcB | %48
 .[GBe]2) z2 z2 | z6 | .[EGB]2 z2 z2 | z6 | .[EGB]2 z2 z2 | z6 | .[FAB^d]2 z2 z2 | z2 (^GABA | %56
 .d2) (^^F^GAG | .^c2) (^F=GAG | .=c2) (^EFGF | .B2) (=E^EFE | .^A2) (^D=EFE | .=A2) (^DEFE) | %62
 (^D^CB,CDE | FG^GA^AB | .[=GBe]2) z2 z2 | z6 | .[EGB]2 z2 z2 | z6 | .[EGB]2 z2 z2 | z6 | %70
 .[FBd]2 z2 z2 | z2 (fgde | .f2) .[E^c]2 .[F^A]2 | .[^A^cf]2 (fgde | .f2) .[E^c]2 .[F^A]2 | %75
 .[^A^cf]2 (fgde) | .f2 (F^G^AB | ^cdef^g^a | b2) B4- | B6 | (g4 =f2- | f2 d4 | G4) (B2 | %83
 d2 e2 =f2) | (g4 =f2- | f2 d4 | G2) (B2 c2 | d2 e2 =f2 | ([ce]4) [_Bd]2- | [Bd]2 [G_B]4 | %90
 [CE]4) ([EG]2 | [G_B]2 [Ac]2 [Bd]2 | ([ce]4) [_Bd]2- | [Bd]2 ([G_B]4) | [CE]2) ([EG]2 [=FA]2 | %95
 [G_B]2 [Ac]2 [^Ae]2) | ([=Beg]feBdc | .B2) G4 | (BAGECD | .[EG]2) .E2 B2- | B(ce^dba) | %101
 [B^df][Bdf] [Bdf]4 | (B=ce^dba) | [B^df][Bdf] [Bdf]4 | !>![B^df]2 [Bdf]4 | !>![c^df]2 [cdf]4 | %106
 !>![Beg]2 [Beg]4 | !>![cea]2 !>![cea]2 !>![^Aef]2 | !>![B^df]2 z2 z2 | z6 | (B^c^defg | %111
 abc'^c'd'^d' | .[egbe']2) z2 z2 | z6 | .[EGB]2 z2 z2 | z6 | .[EGB]2 z2 z2 | z6 | .[FAB^d]2 z2 z2 | %119
 z2 (^GABA | .d2) (^^F^GAG | .^c2) (^F=GAG | .=c2) (^EFGF | .B2) (=E^EFE | .^A2) (^DE^FE | %125
 .=A2) (^DEFE) | ^D^CB,CDE | FG^GA^AB | .[E=GBe]2 z2 G2- | G2 FGA(G | .[EGB]2) z2 E2- | E2 ^DEFE- | %132
 .[EGB]2 (B,^C^DE | FGABdc | .B2) z2 F2- | F2 (^ABcB) | .[B^d]2 .[Af]2 .[Bd]2 | %137
 .[Ge]2 .[Bg]2 .[Ge]2 | .[Bf]2 .[^da]2 .[Bf]2 | .[Bg]2 .[eb]2 .[Bg]2 | z2 (^dc) .A2 | z2 (cA) .F2 | %142
 z2 z2 .[Bfa]2 | .[Beg]2 z2 z2 | z6 | z6 | z6 ||[K:C] [ea]6- | [ea]6- | [ea]2 ([ea]2 [ac']2 | %150
 [c'e']2 [ac']2 [ea]2-) | [ea]6- | [ea]6- | a2 (a2 c'2- | c'2 a2 c'2) | e6- | e2 (^c2 ^d2 | e6-) | %158
 e2 (=c2 A2 | B2 A2 ^G2- | G2) z2 z2 | z6 | z2 (C2 D2 | E6 | E4 A2 | A6-) | A2 (A,2 B,2 | %167
 C2 D2 E2- | E2 E2 c2) | c6- | c2 (B2 A2 | ^G2 A2 B2- | B2) (^F2 A2 | ^G2 A2 B2- | B2) E2- ^D2 | %175
 E6 | E2 z2 z2 | z6 | z6 | z6 | z6 | z6 | z2 (^GAGA) | .B2 (BcBc) | .d2 (defa) | (!>!a4 ^g2-) | %186
 g2 z2 z2 | z6 | z6 | z6 | z2 (^ABAB) | .^c2 (cdcd) | .e2 (e^fgb) | (b4 ^a2-) | a2 (^e^f gf) | %195
 .[Bd^fb]2 z2 [Bdfb]2- | [Bdfb]2 (^e^fgf) | .[Bd^fb]2 z2 [Bdfb]2- | [Bdfb]2 z2 d2 | (^c2 ^G2) G2- | %200
 [GB^c]6 | [A^c]6- | [Ac]2 (^F^GA^c) | (B2 ^F2) F2- | [FAB]6 | [^GB]6- | [GB]2 (^F^GAB | %207
 ^GA^FG E2) | ^D6 | E6 | ^D6 | E6- | E6 | [E^G]6- | [EG]6 |!p! E2 z2 z2 | z6 | z6 | z2 (c2 d2 | %219
 e6 | e4 a2 | a6-) | a2 (A2 B2 | c2 d2 e2- | e2 e2 c'2) | c'6- | c'2 b2 a2 | e6- | (e2 ^c2 ^d2 | %229
 e6-) | e2 (=c2 A2 | B2 A2 ^G2- | G2) z2 z2 | z6 | z6 | z6 | z6 | z6 | z2 (^GAGA) | .B2 (BcBc) | %240
 .d2 (defa) | a4 ^g2- | g2 z2 z2 | z6 | z6 | z6 | z2 (^ABAB) | .^c2 (cdcd) | .e2 (e^fgb) | %249
 (b4 ^a2) | z2 (^de^f^c') | (!>!^c'4 ^b2) | z2 (^e^f^g^d') |!8va(! !>!^d'4 ^^c'2 | z2 !>!e'2 ^d'2 | %255
 z2 !>!=f'2 e'2 | z2 !>!^f'2 ^e'2!8va)! | z2 !>!^f2 ^e2 | z6 | z6 | z6 | z6 | %262
 z2"^dim." z [^e^g] [eg]2 | z2 z [^E^G] [EG]2 | z6 | z6 | z2 z [^E^G] [EG]2 | z6 | z6 | z6 || %270
[K:G] z2 z2 z [F^A] | [F^A]2 z2 z2 | z2 z2 z [F^A] | [F^A]2 z2 z2 | z2 z [F^A] [FA]2 | %275
 z2 z [F^A] [FA]2 | z2 [F^A] z z [FA] | z2 [F^A] z z [FA] | z2 z2 z [B^d] | [B^d]2 z2 z2 | %280
 z2 z2 z [B^d] | [B^d]2 z2 z2 | z2 z [B^d] [Bd]2 | z2 z [B^d] [Bd]2 | z2 [B^d] z z [Bd] | %285
 z2 ^ABc(B | .[EGBe]2) z2 z2 | z6 | .[EGB]2 z2 z2 | z6 | .[EGB]2 z2 z2 | z6 | .[FAB^d]2 z2 z2 | %293
 z2 (^GABA | .d2) (^^F^GAG | .^c2) (^F=GAG | .=c2) (^EFGF | .B2) (=E^EFE | .^A2) (^D=EFE | %299
 .=A2) (^DEFE) | (^D^CB,CDE | FG^GA^AB | .[EGBe]2) z2 z2 | z6 | .[EGB]2 z2 z2 | z6 | %306
 .[EGB]2 z2 z2 | z6 | .[FBd]2 z2 z2 | z2 (fgde | .f2) .[E^c]2 .[F^A]2 | .[^A^c]2 (fgde | %312
 .f2) .[E^c]2 .[F^A]2 | .[^A^cf]2 (fgde | f2) (F^G^AB | ^cdef^g^a | .b2) B4- | B6 | (g4 =f2- | %319
 f2 d4 | G4) B2 | (d2 e2 =f2 | g4 =f2- | f2 d4) | (G2 B2 c2 | d2 e2 =f2 | [ce]4 [_Bd]2- | %327
 [Bd]2 [G_B]4 | [CE]4) ([EG]2 | [G_B]2 [Ac]2 [Bd]2 | [ce]4 [_Bd]2- | [Bd]2 [G_B]4) | %332
 ([CE]2 [EG]2 [=FA]2 | [G_B]2 [Ac]2 [^Ae]2) | ([Beg]feBdc | .B2) .G2 .E2 | (BAGECD | %337
 .B,2) .E2 B2- | (Bce^dba) | [B^df][Bdf] [Bdf]4 | (Bce^dba) | [B^df][Bdf] [Bdf]4 | [B^df]2 [Bdf]4 | %343
 !>![c^df]2 [cdf]4 | !>![Beg]2 [Beg]4 | !>![cea]2 !>![cea]2 !>![^Aef]2 | !>![B^df]2 z2 z2 | z6 | %348
 (B^c^defg | abc'^c'd'^d' | .[gbe']2) z2 G2- | G2 FGA(G | .[EGB]2) z2 E2- | E2 ^DEF(E | %354
 .[EGB]2) (B,^C^DE | FGABdc | B2) z2 F2- | F2 (^GABA | .d2) ^^F^G!arpeggio!A(G | .^c2) (^F=GAG | %360
 .=c2) (^EFGF | .B2) (=E^EFE | .^A2) (^D=EFE | .=A2) (^DEFE) | (^D^CB,CDE | FG^GA^AB | %366
 .[E=GBe]2) z2 G2- | G2 FGA(G | [EGB]2) z2 E2- | E2 ^DEFE- | .[EGB]2 (B,^C^DE | FGABdc | %372
 .B2) z2 F2- | F2 (^ABcB) | .[B^d]2 .[Af]2 .[Bd]2 | .[Ge]2 .[Bg]2 .[Ge]2 | .[Bf]2 .[^da]2 (.[Bf]2 | %377
 .[Bg]2) .[eb]2 .[Bg]2 | z2 (^dc A2) | z2 (cA F2) | z2 z2 [Bfa]2 | [Gce]2 [Gce]4 | (e^dfe) e2 | %383
 [Gce]2 [Gce]4 | (e^dfe) e2 | ([ce]2 [Ac]2 [FA]2 | [EG]2 [FA]2 [GB]2) | ([Ac]2 [^DF]3 [GB] | %388
 [FA]4) [EG]2 | (gfag) g2 | [Gce]2 [Gce]4 | (gfag) g2 | [Gce]2 [Gce]4 | ([eg]2 [ce]2 [Gc]2 | %394
 [GB]2 [EG]2 [FA]2 | [GB]2 ^A)Bc(B | .[EGBe]2) z2 G2- | G2 FGA(G | .[EGB]2) z2 E2- | E2 ^DEF(E | %400
 .[EG]2) z2 z2 | z6 | z6 | z6 | z2 .G2 z2 | .[GB]2 z2 .[GBe]2 | z2 .[Beg]2 z2 | %407
 .[egb]2 z2 .[egb]2 | z2 [GB]4 | [GB]4 [GB]2 | E6- | E6- | E2 z2 z2 |] %413
V:3
 x6 | x6 | x6 | x6 | x6 | x6 | x6 | x6 | x6 | x6 | x6 | x6 | x6 | x6 | x6 | x6 | x6 | x6 | x6 | %19
 x6 | x6 | x6 | x6 | x6 | x6 | x6 | x6 | x6 | x6 | x6 | x6 | x6 | x6 | x6 | x6 | x6 | x6 | x6 | %38
 x6 | x6 | x6 | x6 | x6 | x6 | x6 | x6 | x6 | x6 | x6 | x6 | x6 | x6 | x6 | x6 | x6 | x6 | x6 | %57
 x6 | x6 | x6 | x6 | x6 | x6 | x6 | x6 | x6 | x6 | x6 | x6 | x6 | x6 | x6 | x6 | x6 | x6 | x6 | %76
 x6 | x6 | x6 | x6 | x6 | x6 | x6 | x6 | x6 | x6 | x6 | x6 | x6 | x6 | x6 | x6 | x6 | x6 | x6 | %95
 x6 | x6 | x6 | x6 | x6 | x6 |!8va(! x6 | x6 | x6 | x6 | x6 | x6 | x6 | x2!8va)! x4 | x6 | %110
!8va(! x6 | x6 | x2!8va)! x4 | x6 | x6 | x6 | x6 | x6 | x6 | x6 | x6 | x6 | x6 | x6 | x6 | x6 | %126
 x6 | x6 | x6 | x6 | x6 | x6 | x6 | x6 | x6 | x6 | x6 | x6 | x6 | x6 | x6 | x6 | x4!8va(! x2 | %143
 x2!8va)! x4 |[K:bass] z6 | z6 | x6 ||[K:C][K:treble] x6 | x6 | x2!8va(! x4 | x6 | x6 | x6 | x6 | %154
 e'2 ^d'4!8va)! | ^g6- | g2 a4 | ^g6- | g2 e2 ^d2 | e6- | e2 x4 | x6 | x6 | x6 | x6 | x6 | x6 | %167
 x6 | x6 | x6 | x6 | x6 | x6 | x6 | x2 ^F2 c2 | x6 | x6 | x6 | x6 | z6 | z6 | z6 | x6 | x6 | x6 | %185
!8va(! !>![bd']6- | [bd']2!8va)! x4 | x6 | x6 | x6 | x2!8va(! x4 | x6 | x6 | !>![^c'e']6- | %194
 [c'e']2 x4 | x6 | x6 | x6 | x2!8va)! x4 | x6 | x6 | x6 | x6 | x6 | x6 | x6 | x6 | x6 | x6 | x6 | %210
 x6 | x6 | x6 | x6 | x6 | x6 | x6 | x6 | x2!8va(! x4 | z2 [ac']2 [ac']2 | z2 [ac']2 z2 | %221
 z2 [ac'e']2 [ac'e']2- | [ac'e']2 x4 | x6 | [ac']2 z2 z2 | z2 [e'a']2 [e'a']2- | %226
 [e'a']2 ^d'4!8va)! | ^g6- | g2 a4 | ^g6- | g2 e2 ^d2 | e6- | e2 x4 | x6 | x6 | x6 | x6 | x6 | x6 | %239
 x6 | x6 |!8va(! [bd']6- | [bd']2!8va)! x4 | x6 | x6 | x6 | x6 | x6 | x2!8va(! x4 | [^c'e']6 | x6 | %251
 [^d'^f']6 | x6 | [^e'^g']6 | x2 [^f'a']4 | x2 [g'_b']4 | x2 [^g'=b']4!8va)! | x2 [^GB]4 | x6 | %259
 x6 | x6 | x6 | x6 | x6 | x6 | x6 | x6 | x6 | x6 | x6 ||[K:G] x6 | x6 | x6 | x6 | x6 | x6 | x6 | %277
 x6 | x6 | x6 | x6 | x6 | x6 | x6 | x6 | x6 | x6 | x6 | x6 | x6 | x6 | x6 | x6 | x6 | x6 | x6 | %296
 x6 | x6 | x6 | x6 | x6 | x6 | x6 | x6 | x6 | x6 | x6 | x6 | x6 | x6 | x6 | x6 | x6 | x6 | x6 | %315
 x6 | x6 | x6 | x6 | x6 | x6 | x6 | x6 | x6 | x6 | x6 | x6 | x6 | x6 | x6 | x6 | x6 | x6 | x6 | %334
 x6 | x6 | x6 | x6 | x6 |!8va(! x6 | x6 | x6 | x6 | x6 | x6 | x6 | x2!8va)! x4 | x6 |!8va(! x6 | %349
 x6 | x2!8va)! x4 | x6 | x6 | x6 | x6 | x6 | x6 | x6 | x6 | x6 | x6 | x6 | x6 | x6 | x6 | x6 | x6 | %367
 x6 | x6 | x6 | x6 | x6 | x6 | x6 | x6 | x2!8va(! x4 | x6 | x6!8va)! | x6 | x6 | %380
 x4!8va(! x2!8va)! | x6 | x6 | x6 | x6 | x6 | x6 | x6 | x6 | x6 | x6 | x6 | x6 | x6 | x6 | x6 | %396
 x6 | x6 | x6 | x6 | x6 | x6 | x6 | x6 | x6 | x6 | x2!8va(! x4 | x6!8va)! | x6 | x6 | x6 | x6 | %412
 x6 |] %413
V:4
 x6 | x6 | x6 | x6 | x6 | x6 | x6 | x6 | x6 | x6 | x6 | x6 | x6 | x6 | x6 | x6 | x6 | x6 | x6 | %19
 x6 | x6 | x6 | x6 | x6 | x6 | x6 | x6 | x6 | x6 | x6 | x6 | x6 | x6 | x6 | x6 | x6 | x6 | x6 | %38
 x6 | x6 | x6 | x6 | x6 | x6 | x6 | x6 | x6 | x6 | x6 | x6 | x6 | x6 | x6 | x6 | x6 | x6 | x6 | %57
 x6 | x6 | x6 | x6 | x6 | x6 | x6 | x6 | x6 | x6 | x6 | x6 | x6 | x6 | x6 | x6 | x6 | x6 | x6 | %76
 x6 | x6 | x6 | x6 | x6 | x6 | x6 | x6 | x6 | x6 | x6 | x6 | x6 | x6 | x6 | x6 | x6 | x6 | x6 | %95
 x6 | x6 | x6 | x6 | x6 | x6 | x6 | x6 | x6 | x6 | x6 | x6 | x6 | x6 | x6 | x6 | x6 | x6 | x6 | %114
 x6 | x6 | x6 | x6 | x6 | x6 | x6 | x6 | x6 | x6 | x6 | x6 | x6 | x6 | x6 | x6 | x6 | x6 | x6 | %133
 x6 | x6 | x6 | x6 | x6 | x6 | x6 | x6 | x6 | x6 | x6 | x6 | x6 | x6 ||[K:C] x6 | x6 | x6 | x6 | %151
 x6 | x6 | e2 e4- | e2 ^d4 | x6 | x6 | x6 | x6 | x6 | x6 | x6 | x6 | x6 | x6 | x6 | x6 | x6 | x6 | %169
 x6 | x6 | x6 | x6 | x6 | x6 | x6 | x6 | x6 | x6 | x6 | x6 | x6 | x6 | x6 | x6 | [Bd]6- | %186
 [Bd]2 x4 | x6 | x6 | x6 | x6 | x6 | x6 | !>![^ce]6- | [ce]2 x4 | x6 | x6 | x6 | x6 | x6 | x6 | %201
 x6 | x6 | x6 | x6 | x6 | x6 | x6 | x6 | x6 | x6 | x6 | x6 | x6 | x6 | x6 | x6 | x6 | x6 | %219
 z2 [Ac]2 [Ac]2 | z2 [Ac]2 z2 | z2 [Ace]2 [Ace]2- | [Ace]2 x4 | x6 | [Ac]2 z2 z2 | %225
 z2 [ea]2 [ea]2- | [ea]2 ^d4 | x6 | x6 | x6 | x6 | x6 | x6 | x6 | x6 | x6 | x6 | x6 | x6 | x6 | %240
 x6 | [Bd]6- | [Bd]2 x4 | x6 | x6 | x6 | x6 | x6 | x6 | [^ce]6 | x6 | [^d^f]6 | x6 | %253
!8va(! [^e^g]6 | x2 [^fa]4 | x2 [g_b]4 | x2 [^g=b]4!8va)! | x2 [^GB]4 | x6 | x6 | x6 | x6 | x6 | %263
 x6 | x6 | x6 | x6 | x6 | x6 | x6 ||[K:G] x6 | x6 | x6 | x6 | x6 | x6 | x6 | x6 | x6 | x6 | x6 | %281
 x6 | x6 | x6 | x6 | x6 | x6 | x6 | x6 | x6 | x6 | x6 | x6 | x6 | x6 | x6 | x6 | x6 | x6 | x6 | %300
 x6 | x6 | x6 | x6 | x6 | x6 | x6 | x6 | x6 | x6 | x6 | x6 | x6 | x6 | x6 | x6 | x6 | x6 | x6 | %319
 x6 | x6 | x6 | x6 | x6 | x6 | x6 | x6 | x6 | x6 | x6 | x6 | x6 | x6 | x6 | x6 | x6 | x6 | x6 | %338
 x6 | x6 | x6 | x6 | x6 | x6 | x6 | x6 | x6 | x6 | x6 | x6 | x6 | x6 | x6 | x6 | x6 | x6 | x6 | %357
 x6 | x6 | x6 | x6 | x6 | x6 | x6 | x6 | x6 | x6 | x6 | x6 | x6 | x6 | x6 | x6 | x6 | x6 | x6 | %376
 x6 | x6 | x6 | x6 | x6 | x6 | x6 | x6 | x6 | x6 | x6 | x6 | x6 | x6 | x6 | x6 | x6 | x6 | x6 | %395
 x6 | x6 | x6 | x6 | x6 | x6 | x6 | x6 | x6 | x6 | x6 | x6 | x6 | x6 | x6 | x6 | x6 | x6 |] %413
V:5
!mp! z2 [E,^A,^CE]2 [E,A,CE]2- | [E,A,CE]6 | z2 [E,^A,^CE]2 [E,A,CE]2- | [E,A,CE]6 | %4
 z2 [E,^A,^CE]4 |"_cresc." z2 [E,^A,^CE]4 | z2 [E,^A,^CE]4 |!<(! [E,^A,^CE]4 [E,A,CE]2!<)! | %8
!mf! z2[K:treble] [A,^DFA]2 [A,DFA]2- | [A,DFA]6 | z2 [A,^DFA]2 [A,DFA]2- | [A,DFA]6 | %12
"_cresc." z2 [A,^DFA]4 | z2 [A,^DFA]4 | z2 [A,^DFA]4 |!<(! [A,^DFA]4!<)! z2 | %16
!f! z2[K:bass]!p! [G,B,E]2 [G,B,E]2 | z2 [G,B,E]2 [G,B,E]2 | z2 [G,B,]2 [G,B,]2 | %19
 z2 [G,B,]2 [G,B,]2 | z2 [G,B,]2 [G,B,]2 | z2 [G,B,]2 [G,B,]2 | z2 [A,B,^D]2 [A,B,D]2 | %23
 z2 [A,B,^D]2 [A,B,D]2 | z2 [^G,B,=D]2 [G,B,D]2 | z2 [=G,^A,^C]2 [G,A,C]2 | %26
 z2 [F,=A,=C]2 [F,A,C]2 | z2 [=F,^G,B,]2 [F,G,B,]2 | z2 [E,=G,^A,]2 [E,G,A,]2 | %29
 z2 [E,^F,=A,]2 [E,F,A,]2 | z2!<(! [B,,^D,F,]2 [B,,D,F,]2-!<)! |!f! [B,,D,F,]6 | %32
!f! E,2!p! [G,B,E]2 [G,B,E]2 | z2 [G,B,E]2 [G,B,E]2 | z2 [G,B,]2 [G,B,]2 | z2 [G,B,]2 [G,B,]2 | %36
 z2 [G,B,]2 [G,B,]2 | z2 [G,B,]2 [G,B,]2 | z2"_cresc." [F,B,D]2 [F,B,D]2 | z2!f! ([F,^C]2 [F,B,]2 | %40
 [F,^A,]2) (G,F,)F,^C, | F,2 ([F,^C]2 [F,B,]2 | [F,^A,]2) (G,F,)F,^C, | F,2 ([F,^C]2 [F,B,]2 | %44
 [F,^A,]2)!<(! (G,2 F,2 | E,2 D,2 ^C,2!<)! |!f! ([=C,=C]2)!>(! [B,,B,]2 [^A,,^A,]2 | %47
 [=A,,=A,]2 [=G,,=G,]2 [F,,F,]2)!>)! | [E,,E,]2!p! [G,B,E]2 [G,B,E]2 | z2 [G,B,E]2 [G,B,E]2 | %50
 z2 [G,B,]2 [G,B,]2 | z2 [G,B,]2 [G,B,]2 | z2 [G,B,]2 [G,B,]2 | z2 [G,B,]2 [G,B,]2 | %54
 z2 [A,B,^D]2 [A,B,D]2 | z2 [A,B,^D]2 [A,B,D]2 | z2 [^G,B,=D]2 [G,B,D]2 | z2 [=G,^A,^C]2 [G,A,C]2 | %58
 z2 [F,=A,=C]2 [F,A,C]2 | z2 [=F,^G,B,]2 [F,G,B,]2 | z2 [E,=G,^A,]2 [E,G,A,]2 | %61
 z2 [E,^F,=A,]2 [E,F,A,]2 | z2 [B,,^D,F,]2 [B,,D,F,]2- |!f! [B,,D,F,]6 | %64
!f! E,2!p! [G,B,E]2 [G,B,E]2 | z2 [G,B,E]2 [G,B,E]2 | z2 [G,B,]2 [G,B,]2 | z2 [G,B,]2 [G,B,]2 | %68
 z2 [G,B,]2 [G,B,]2 | z2 [G,B,]2 [G,B,]2 | z2"_cresc." [F,B,D]2 [F,B,D]2 | z2!f! ([F,^C]2 [F,B,]2 | %72
 [F,^A,]2) (=G,F,)F,^C, | F,2 ([F,^C]2 [F,B,]2 | [F,^A,]2) (G,F,)F,^C, | F,2 ([F,^C]2 [F,B,]2 | %76
 [F,^A,]2) (=G,2 F,2 | E,2 D,2 ^C,2) |!f! z2 [D,F,B,]4- |"_dim." [D,F,B,]2 [D,F,B,]4 | %80
!p! z2 [D,=F,B,]2 [D,F,B,]2- | [D,F,B,]2 [D,=F,B,]2 [D,F,B,]2- | [D,F,B,]2 [D,=F,B,]2 [D,F,B,]2- | %83
 [D,F,B,]2 [D,=F,B,]2 [D,F,B,]2- | [D,F,B,]2 [D,=F,B,]2 [D,F,B,]2- | %85
 [D,F,B,]2 [D,=F,B,]2 [D,F,B,]2- | [D,F,B,]2 [D,=F,B,]2 [D,F,B,]2- | %87
 [D,F,B,]2 [D,=F,B,]2 [D,F,B,]2 | z2"_cresc." [E,G,_B,]2 [E,G,B,]2- | %89
 [E,G,B,]2 [E,G,_B,]2 [E,G,B,]2- | [E,G,B,]2 [E,G,_B,]2 [E,G,B,]2- | %91
 [E,G,B,]2 [E,G,_B,]2 [E,G,B,]2- | [E,G,B,]2 [E,G,_B,]2 [E,G,B,]2- | %93
"_poco a poco" [E,G,B,]2 [E,G,_B,]2 [E,G,B,]2- |"_cresc." [E,G,B,]2 [E,G,_B,]2 [E,G,B,]2- | %95
!mf!!<(! [E,G,B,]2 (=B,CDC)!<)! |!f! .[G,B,E]2 z2 z2 |!f! (GFEB,DC | .B,2) .E,2 .G,2 | %99
 (B,A,G,E,C,D, | .[B,,B,]2) .[C,C]2 .[^D,^D]2 | (C,B,,^A,,C,) B,,2 | [B,,B,]2 [C,C]2 [^D,^D]2 | %103
 (C,B,,A,,C,) B,,2 | (CB,^A,C) B,2 | (B,A,^G,B,) A,2 | (A,G,F,A,) G,2 | (G,F,^E,F, C,2) | %108
!<(! (B,,^C,^D,E,F,G, | A,B,^C^DEF!<)! |!f! .=G2)!<(! .E2 .C2 | %111
 .A,2 .F,2!<)![K:treble] .[B,^DFB]2 |!ff! .[B,EGB]2[K:bass]!p! [G,B,E]2 [G,B,E]2 | %113
 z2 [G,B,E]2 [G,B,E]2 | z2 [G,B,]2 [G,B,]2 | z2 [G,B,]2 [G,B,]2 | z2 [G,B,]2 [G,B,]2 | %117
 z2 [G,B,]2 [G,B,]2 | z2 [A,B,^D]2 [A,B,D]2 | z2 [A,B,^D]2 [A,B,D]2 | %120
!>(! z2 [^G,B,=D]2 [G,B,D]2!>)! | z2 [=G,^A,^C]2 [G,A,C]2 | z2 [F,=A,=C]2 [F,A,C]2 | %123
 z2 [=F,^G,B,]2 [F,G,B,]2 | z2 [E,=G,^A,]2 [E,G,A,]2 | z2 [E,^F,=A,]2 [E,F,A,]2 | %126
 z2 [B,,^D,F,]2 [B,,D,F,]2- |!f! [B,,D,F,]6 | E,2!f! [G,B,E]2 [G,B,E]2 | z2 [G,B,E]2 [G,B,E]2 | %130
 z2 [G,B,]2 [G,B,]2 | z2 [G,B,]2 [G,B,]2 | z2 G,2 [G,B,]2 | z2 [G,B,E]2 [G,B,E]2 | %134
 z2 [A,B,^D]2 [A,B,D]2 | z2 [A,B,^D]2 [A,B,D]2 | .A,2 .F,2 .A,2 | .G,2 .E,2 .G,2 | %138
 .^D2!<(! .B,2 .D2 | .E2 .G2 .E2!<)! | (CA,) .F,2 .F,2 | (A,F,) .^D,2 .D,2 | %142
 (F,^D,) .B,,2!ff! .B,2 | .[G,B,E]2 z2 (E,2 |"_dim. e rall." D,4 E,2 | C,4 E,2 | %146
 B,,2)"^a tempo" !>![C,C]2 !>![D,D]2 ||[K:C] z2 [A,C]2 [A,C]2 | z2 [A,C]2 z2 | [A,A]6- | %150
 [A,A]2 ([A,,A,]2 [B,,B,]2 | [C,C]2 [D,D]2 [E,E]2- |!<(! [E,E]2 [E,E]2[K:treble] [Cc]2!<)! | %153
 [Cc]6-) | [Cc]2 ([B,B]2 [A,A]2 | [^G,^G]2 [A,A]2 [B,B]2- | [B,B]2) ([^F,^F]2 [A,A]2 | %157
 [^G,^G]2 [A,A]2 [B,B]2- | [B,B]2) A,4 |[K:bass] E,6- | E,2 (=F,2 =G,2 | E,2 B,,2 E,2- | %162
 E,2) z2 z2 |!mp! z2 [E,A,C]2 [E,A,C]2 | z2 [E,A,C]2 [E,A,C]2 | z2 [E,A,C]2 [E,A,C]2- | %166
 [E,A,C]2 z2 z2 | z2 [E,A,C]2 [E,A,C]2 | z2 [E,A,C]2 [E,A,C]2 | z2 [E,A,C]2 [E,A,C]2 | %170
 z2 [^D,A,^D]2 [D,A,D]2 | (E4!<(! B,2- | B,2) (^C2 ^D2!<)! |!>(! (E4) B,2-)!>)! | %174
"_dim." B,2 (=C2 A,2 | B,2 A,2 ^G,2- | G,2) (=F,2 =G,2 | E,2 B,,2 E,2- | %178
 E,2)[K:treble]"_cresc." ([B,B]2 [Cc]2 | [Dd]6 |!<(! z2 [^GB]2 z2 | [^G^g]6)!<)! | z6 | %183
 z2 [B,D]2 [B,D]2 | z2 [B,D]2 [B,D]2 | z2 [B,D]2 [B,D]2- | [B,D]2 [^C^c]2 [Dd]2 |"_cresc." [Ee]6 | %188
!<(! z2 [^A^c]2 z2!<)! |!>(! z2 [^ce]2 [ce]2!>)! | z6 |[K:bass] z2 [^CE]2 [CE]2 | z2 [^CE]2 [CE]2 | %193
 z2 [^CE]2 [CE]2- | [CE]2 z2 z2 |!ff! z2!<(! B,4 | ^F6!<)! | z2!<(! (DEDE) | ^F6!<)! | %199
 z2"_dim." [^G,^C^E]2 [G,CE]2 | z2 [^G,^C^E]2 [G,CE]2 |[K:treble] [^F,^F]6- | [F,F]6 | %203
 z2[K:bass] [^F,B,^D]2 [F,B,D]2 | z2 [^F,B,^D]2 [F,B,D]2 | B,2 A,2 ^G,2 | %206
 z2!mp! [^D,A,B,]2 [D,A,B,]2 | z2 [E,^G,B,]2 [E,G,B,]2 | z"_dim." (B,,^F,A,^G,F,) | %209
 z2 [E,^G,]2 [E,G,]2 | z (B,,^F,A,^G,F,) | z2 [E,^G,]2 [E,G,]2 |"_dim." z2 [E,^G,]2 [E,G,]2 | %213
 z2 [E,^G,]2 [E,G,]2 |!p! z2 [E,^G,]2 [E,G,]2 | z2 z2 (E,2 |!<(! D,4 E,2 | C,4 E,2!<)! | %218
 B,,2)!f! [C,C]2 [D,D]2 | z2 [A,C]2 [A,C]2 |!<(! z2 [A,C]2 z2 | [A,A]6-!<)! | %222
 [A,A]2 ([A,,A,]2 [B,,B,]2 | [C,C]2 [D,D]2 [E,E]2-) |!<(! [E,E]2 [E,E]2[K:treble] [Cc]2!<)! | %225
 [Cc]6- | [Cc]2!>(! ([B,B]2 [A,A]2!>)! | [^G,^G]2 [A,A]2 [B,B]2- | [B,B]2) ([^F,^F]2 ([A,A]2) | %229
 [^G,^G]2 [A,A]2 [B,B]2- | [B,B]2)[K:bass] A,4 | E,6- | E,2!mp! (=F,2 =G,2 | E,2 B,,2) E,2- | %234
 E,2[K:treble] [B,B]2 [Cc]2 |!<(! z2 [^GB]2 [GB]2!<)! | z2 [^GB]2 z2 | z2!>(! [Bd]2 [Bd]2!>)! | %238
 z6 | z2 [B,D]2 [B,D]2 | z2 [B,D]2 [B,D]2 | z2 [B,D]2 [B,D]2- | [B,D]2 [^C^c]2 [Dd]2 | %243
 z2!<(! [^A^c]2 [Ac]2!<)! | z2 [^A^c]2 z2 | z2 [^ce]2 [ce]2 | z6 | z2 [^CE]2 [CE]2 | %248
 z2 [^CE]2 [CE]2 | z2 [^CE]2 [CE]2 | z2 [^D^F]2 [DF]2 | z2"_cresc." [^D^F]2 [DF]2 | %252
 z2 [^E^G]2 [EG]2 | z2 [^E^G]2 [EG]2 | z2!f! [^FA]2 [FA]2 | z2 [=G_B]2 [GB]2 | %256
 z2!ff! [^G=B]2 [GB]2 | z2[K:bass] [^G,B,]2 [G,B,]2 | z6 | z6 | z6 | z6 |"_dim." z6 | z6 | %264
!mp!"_poco a poco rall." [B,D]3 [^E,^G,^C] [E,G,C]2 | z6 | z6 | z6 | %268
!p! [B,D]3 [^E,^G,^C] [E,G,C]2 |"_dim." z6 ||[K:G]!mp! z2 [E,^A,^CE]2 [E,A,CE]2- | [E,A,CE]6 | %272
 z2 [E,^A,^CE]2 [E,A,CE]2- | [E,A,CE]6 | z2[K:treble] [E,^A,^CE]4 | z2 [E,^A,^CE]4 | %276
 z2 [E,^A,^CE]4 |!<(! [E,^A,^CE]4 [E,A,CE]2!<)! |!mf! z2 [=A,^DF=A]2 [A,DFA]2- | [A,DFA]6 | %280
 z2 [A,^DFA]2 [A,DFA]2- | [A,DFA]6 | z2 [A,^DFA]4 | z2 [A,^DFA]4 | z2 [A,^DFA]4 | [A,^DFA]4 z2 | %286
[K:bass]!f! z2!p! [G,B,E]2 [G,B,E]2 | z2 [G,B,E]2 [G,B,E]2 | z2 [G,B,]2 [G,B,]2 | %289
 z2 [G,B,]2 [G,B,]2 | z2 [G,B,]2 [G,B,]2 | z2 [G,B,]2 [G,B,]2 | z2 [A,B,^D]2 [A,B,D]2 | %293
 z2 [A,B,^D]2 [A,B,D]2 | z2 [^G,B,=D]2 [G,B,D]2 | z2 [=G,^A,^C]2 [G,A,C]2 | %296
 z2 [F,=A,=C]2 [F,A,C]2 | z2 [=F,^G,B,]2 [F,G,B,]2 | z2 [E,=G,^A,]2 [E,G,A,]2 | %299
 z2 [E,^F,=A,]2 [E,F,A,]2 |!<(! z2 [B,,^D,F,]2 ([B,,D,F,]2-!<)! |!f! [B,,D,F,]6) | %302
 E,2 [G,B,E]2 [G,B,E]2 | z2 [G,B,E]2 [G,B,E]2 | z2 [G,B,]2 [G,B,]2 | z2 [G,B,]2 [G,B,]2 | %306
 z2 [G,B,]2 [G,B,]2 | z2 [G,B,]2 [G,B,]2 | z2 [B,D]2 [B,D]2 |!f! z2 ([F,^C]2 [F,B,]2 | %310
 [F,^A,]2) (G,F,)F,^C, | F,2 ([F,^C]2 [F,B,]2 | [F,^A,]2) (G,F,)F,^C, | F,2 ([F,^C]2 [F,B,]2 | %314
 [F,^A,]2) (G,2 F,2 | E,2 D,2 ^C,2) | z2 [D,F,B,]4- |"_dim." [D,F,B,]2 [D,F,B,]4 | %318
!p! z2 [D,=F,B,]2 [D,F,B,]2- | [D,F,B,]2 [D,=F,B,]2 [D,F,B,]2- | [D,F,B,]2 [D,=F,B,]2 [D,F,B,]2- | %321
 [D,F,B,]2 [D,=F,B,]2 [D,F,B,]2- | [D,F,B,]2 [D,=F,B,]2 [D,F,B,]2- | %323
 [D,F,B,]2 [D,=F,B,]2 [D,F,B,]2- | [D,F,B,]2 [D,=F,B,]2 [D,F,B,]2- | %325
 [D,F,B,]2 [D,=F,B,]2 [D,F,B,]2 |"_cresc." z2 [E,G,_B,]2 [E,G,B,]2- | %327
 [E,G,B,]2 [E,G,_B,]2 [E,G,B,]2- | [E,G,B,]2 [E,G,_B,]2 [E,G,B,]2- | %329
 [E,G,B,]2 [E,G,_B,]2 [E,G,B,]2- | [E,G,B,]2 [E,G,_B,]2 [E,G,B,]2- | %331
"_cresc." [E,G,B,]2 [E,G,_B,]2 [E,G,B,]2- | [E,G,B,]2!<(! [E,G,_B,]2 [E,G,B,]2- | %333
 [E,G,B,]2 (=B,CDC!<)! |!f! .[G,B,E]2) z2 z2 |!f! (GFEB,DC | .B,2) .E,2 .G,2 | (B,A,G,E,C,D, | %338
 [B,,B,]2) [C,C]2 [^D,^D]2 | (C,B,,^A,,C, B,,2) | [B,,B,]2 [C,C]2 [^D,^D]2 | C,B,,^A,,C, B,,2 | %342
 (CB,^A,C B,2) | (B,=A,^G,B, A,2) | (A,=G,F,A, G,2) | (G,F,^E,F, C,2) | %346
 (B,,^C,"_cresc."^D,=E,F,G, |!<(! A,B,^C^DEF!<)! |!f! .G2) .E2 .C2 | %349
 .A,2 .F,2[K:treble] .[B,^DFB]2 | .[B,EGB]2[K:bass]!f! [G,B,E]2 [G,B,E]2 | z2 [G,B,E]2 [G,B,E]2 | %352
 z2 [G,B,]2 [G,B,]2 | z2 [G,B,]2 [G,B,]2 | z2 G,2 [G,B,]2 | z2 [G,B,E]2 [G,B,E]2 | %356
 z2 [A,B,^D]2 [A,B,D]2 | z2 [A,B,^D]2 [A,B,D]2 | z2 [^G,B,=D]2 [G,B,D]2 | z2 [=G,^A,^C]2 [G,A,C]2 | %360
 z2 [F,=A,=C]2 [F,A,C]2 | z2 [=F,^G,B,]2 [F,G,B,]2 | z2 [E,=G,^A,]2 [E,G,A,]2 | %363
 z2 [E,^F,=A,]2 [E,F,A,]2 |"_cresc." z2 [B,,^D,F,]2 [B,,D,F,]2- | [B,,D,F,]6 | %366
!f! z2 [G,B,E]2 [G,B,E]2 | z2 [G,B,E]2 [G,B,E]2 | z2 [G,B,]2 [G,B,]2 | z2 [G,B,]2 [G,B,]2 | %370
 z2 G,2 [G,B,]2 | z2 [G,B,E]2 [G,B,E]2 | z2 [A,B,^D]2 [A,B,D]2 | z2 [A,B,^D]2 [A,B,D]2 | %374
 .A,2 .F,2 .A,2 | .G,2 .E,2 .G,2 |!<(! .^D2 .B,2 .D2 | .E2 .G2 .E2!<)! | (CA,) .F,2 .F,2 | %379
 (A,F,) .^D,2 .D,2 | (F,^D,) B,,2 B,2 |!f! (_B,"_un poco acceler."A,CB, B,2) | [G,=B,E]2 [G,B,E]4 | %383
!f! (_B,A,CB, B,2) | [G,=B,E]2 [G,B,E]4 |"^a tempo"!mp! z2 [E,F,C]2 [E,F,C]2 | %386
 z2 [E,G,B,]2 [E,G,B,]2 | z2 [^D,A,B,]2 [D,A,B,]2 | z2 [E,G,B,]2 [E,G,B,]2 | %389
!f! [=F,B,E]2"_poco acceler." [F,B,E]4 | (G,^F,A,G,) G,2 | [=F,B,E]2 [F,B,E]4 | (G,^F,A,G, G,2) | %393
!mp!"^a tempo" z2 [E,G,C]2 [E,G,C]2 | z2 [E,G,B,]2 [E,G,B,]2 | z2 [^D,F,B,]2!f! B,2 | %396
"_acceler. e cresc." z2 [G,B,E]2 [G,B,E]2 | z2 [E,G,B,]2 [E,G,B,]2 | z2 [G,B,]2 [G,B,]2 | %399
 z2 [G,B,]2 [G,B,]2 | [E,G,]2 ^A,B,C(B, | .E2)[K:treble] (FG=A(G) | .B2) (^DEF(E) | %403
 .G2)[K:bass] (^A,B,C(B,) | .[G,B,E]2) z2 .[G,B,E]2 | z2"_cresc." .[G,B,E]2 z2 | %406
 .[G,B,E]2 z2 .[G,B,E]2 | z2 .[G,B,E]2 z2 | z2!ff! [G,B,E]4 | [G,B,E]4 [G,B,E]2 |!ff! E,6- | E,6- | %412
 E,2 z2 z2 |] %413
V:6
 [F,,,F,,]6- | [F,,,F,,]2 [^B,,,^B,,]2 [^C,,^C,]2 | [F,,,F,,]6- | [F,,,F,,]2 [D,,D,]2 [^C,,^C,]2 | %4
 [F,,,F,,]4 [^C,,^C,]2 | [F,,,F,,]4 [^C,,^C,]2 | [F,,,F,,]2 [^C,,^C,]2 [F,,,F,,]2 | %7
 [^C,,^C,]2 [F,,,F,,]2 [C,,C,]2 | [B,,,B,,]6- | [B,,,B,,]2 [^E,,^E,]2 [F,,F,]2 | [B,,,B,,]6- | %11
 [B,,,B,,]2 [G,,G,]2 [F,,F,]2 | [B,,,B,,]4 [F,,F,]2 | [B,,,B,,]4 [F,,F,]2 | %14
 [B,,,B,,]2 [F,,F,]2 [B,,,B,,]2 | [F,,F,]2 [B,,,B,,]2 z2 | [E,,,E,,]2 z2 z2 | [B,,,B,,]2 z2 z2 | %18
 [E,,E,]2 z2 z2 | [B,,,B,,]2 z2 z2 | [E,,E,]2 z2 z2 | [B,,,B,,]2 z2 z2 | [F,,F,]2 z2 z2 | %23
 [B,,,B,,]2 z2 z2 | !>![=F,,=F,]6 | !>![E,,E,]6 | !>![^D,,^D,]6 | !>![=D,,=D,]6 | !>![^C,,^C,]6 | %29
 !>![=C,,=C,]6 | [B,,,B,,]2 z2 z2 | [B,,,,B,,,]6 | [E,,,E,,]2 z2 z2 | [B,,,B,,]2 z2 z2 | %34
 [E,,E,]2 z2 z2 | [B,,,B,,]2 z2 z2 | [E,,E,]2 z2 z2 | [B,,,B,,]2 z2 z2 | [F,,F,]2 z2 z2 | %39
 [F,,,F,,]2 (E,2 D,2 | ^C,2) (G,,F,,)F,,^C,, | F,,2 (E,2 D,2 | ^C,2) (G,,F,,)F,,^C,, | %43
 F,,2 (E,2 D,2 | ^C,2) (G,,2 F,,2 | E,,2 D,,2 ^C,,2) | B,,,6- | B,,,4 z2 | E,,,2 z2 z2 | %49
 [B,,,B,,]2 z2 z2 | [E,,E,]2 z2 z2 | [B,,,B,,]2 z2 z2 | [E,,E,]2 z2 z2 | [B,,,B,,]2 z2 z2 | %54
 [F,,F,]2 z2 z2 | [B,,,B,,]2 z2 z2 | !>![=F,,=F,]6 | !>![E,,E,]6 | !>![^D,,^D,]6 | !>![=D,,=D,]6 | %60
 !>![^C,,^C,]6 | !>![=C,,=C,]6 | [B,,,B,,]2 z2 z2 | [B,,,,B,,,]6 | [E,,,E,,]2 z2 z2 | %65
 [B,,,B,,]2 z2 z2 | [E,,E,]2 z2 z2 | [B,,,B,,]2 z2 z2 | [E,,E,]2 z2 z2 | [B,,,B,,]2 z2 z2 | %70
 [F,,F,]2 z2 z2 | [F,,,F,,]2 (E,2 D,2 | ^C,2) (=G,,F,,)F,,^C,, | F,,2 (E,2 D,2 | %74
 ^C,2) (G,,F,,)F,,^C,, | F,,2 (E,2 D,2 | ^C,2) (=G,,2 F,,2 | E,,2 D,,2 ^C,,2) | [B,,,B,,]6 | %79
 [A,,,A,,]6 | G,,,6- | z2 (^C,,D,,E,,D,,) | G,,6- | G,,6 | G,,,6- | z2 (^C,,D,,E,,D,,) | G,,6- | %87
 G,,6 | =C,,6- | z2 (^F,,G,,A,,G,,) | C,6 | z2 (F,,G,,A,,G,,) | C,6 | z2 (F,,G,,A,,G,,) | %94
 C,2 (F,,G,,A,,G,,) | C,2 (=B,,C,D,C,) | .[B,,,B,,]2 z2 z2 | (G,F,E,B,,D,C, | .B,,2) .E,,2 .G,,2 | %99
 (B,,A,,G,,E,,C,,D,, | .B,,,2) .[A,,,A,,]2 .[F,,,F,,]2 | (C,,B,,,^A,,,C,,) B,,,2 | %102
 B,,,2 [=A,,,=A,,]2 [F,,,F,,]2 | (C,,B,,,^A,,,C,,) B,,,2 | (C,B,,B,,C,) B,,2 | %105
 (B,,=A,,^G,,B,,) A,,2 | (A,,=G,,F,,A,,) G,,2 | (G,,F,,^E,,F,, C,,2) | (B,,,^C,,^D,,=E,,F,,G,, | %109
 A,,B,,^C,^D,E,F, | .=G,2) .E,2 .C,2 | .A,,2 .F,,2 .[B,,,B,,]2 | .[E,,,E,,]2 z2 z2 | %113
 [B,,,B,,]2 z2 z2 | [E,,E,]2 z2 z2 | [B,,,B,,]2 z2 z2 | [E,,E,]2 z2 z2 | [B,,,B,,]2 z2 z2 | %118
 [F,,F,]2 z2 z2 | [B,,,B,,]2 z2 z2 | !>![=F,,=F,]6 | !>![E,,E,]6 | !>![^D,,^D,]6 | !>![=D,,=D,]6 | %124
 !>![^C,,^C,]6 | !>![=C,,=C,]6 | [B,,,B,,]2 z2 z2 | [B,,,,B,,,]6 | [E,,,E,,]2 z2 z2 | %129
 [B,,,B,,]2 z2 z2 | [E,,E,]2 z2 z2 | [B,,,B,,]2 z2 z2 | [E,,E,]2 z2 z2 | [B,,,B,,]2 z2 z2 | %134
 [F,,F,]2 z2 z2 | [B,,,B,,]2 z2 z2 | .A,,2 .F,,2 .A,,2 | .G,,2 .E,,2 .G,,2 | %138
 .[^D,,^D,]2 .[B,,,B,,]2 .[D,,D,]2 | .[E,,E,]2 .[G,,G,]2 .[E,,E,]2 | (C,A,,) .F,,2 .F,,2 | %141
 (A,,F,,) .^D,,2 .D,,2 | (F,,^D,,) .B,,,2 .[B,,,B,,]2 | [E,,,E,,]6- | [E,,,E,,]6- | [E,,,E,,]6- | %146
 [E,,,E,,]2 z2 z2 ||[K:C] [A,,,A,,]6 | [G,,,G,,]6 | [^F,,,^F,,]6- | [F,,,F,,]6 | [A,,,A,,]6 | %152
 [G,,,G,,]6 | [^F,,,^F,,]6 | [F,,,F,,]6 | [E,,,E,,]6 | [B,,,B,,]6 | [E,,B,,]6- | [E,,B,,]2 z2 z2 | %159
 z6 | z2 (=F,,2 =G,,2 | E,,2 B,,,2 E,,2- | E,,2) z2 z2 | [A,,,A,,]6 | [G,,,G,,]6 | [^F,,,^F,,]6- | %166
 [F,,,F,,]6 | [A,,,A,,]6 | [G,,,G,,]6 | [^F,,,^F,,]6 | [=F,,,=F,,]6 | [E,,,E,,]6 | [B,,,B,,]6 | %173
 [E,,B,,]6 | [B,,,B,,]6 | [E,,B,,]6- | [E,,B,,]2 (=F,,2 =G,,2 | E,,2 B,,,2 E,,2- | E,,2) z2 z2 | %179
 [E,,E,]6 | [F,,F,]6 | [E,,E,]6 | [E,,,E,,]2 z2 z2 | [E,,E,]2 z2 z2 | !>![F,,F,]2 z2 z2 | %185
 [E,,E,]6- | [E,,E,]2 z2 z2 | [^F,,^F,]6 | [G,,G,]6 | [^F,,^F,]6 | [^F,,,^F,,]2 z2 z2 | %191
 [^F,,^F,]2 z2 z2 | !>![G,,G,]2 z2 z2 | [^F,,^F,]6- | [F,,F,]2 z2 z2 | [B,,,B,,]4 [A,,,A,,]2 | %196
 [^G,,,^G,,]6 | [B,,,B,,]4 [A,,,A,,]2 | [^G,,,^G,,]6 | [^C,,^C,]2 z2 z2 | [^C,,^C,]2 z2 z2 | %201
 [^F,,^C,]6 | [E,,E,]6 | [^D,,^D,]2 z2 z2 | [B,,,B,,]2 z2 z2 | [E,,B,,]6 | [E,,B,,]6 | [E,,B,,]6 | %208
 [E,,,E,,]6 | [E,,,E,,]6 | [E,,,E,,]6 | [E,,,E,,]4 z2 | [E,,,E,,]6 | [E,,,E,,]6 | [E,,,E,,]6 | %215
 [E,,,E,,]2 z2 (E,,2 | D,,4 E,,2 | C,,4 E,,2 | B,,,2) z2 z2 | [A,,,A,,]6 | [G,,,G,,]6 | %221
 [^F,,,^F,,]6- | [F,,,F,,]6 | [A,,,A,,]6 | [G,,,G,,]6 | [^F,,,^F,,]6 | [=F,,,=F,,]6 | [E,,,E,,]6 | %228
 [B,,,B,,]6 | [E,,B,,]6- | [E,,B,,]2 z2 z2 | z6 | z2 (=F,,2 =G,,2 | E,,2 B,,,2) E,,2- | %234
 E,,2 z2 z2 | [E,,E,]6 | !>![F,,F,]6 | [E,,E,]6 | [E,,,E,,]2 z2 z2 | [E,,E,]2 z2 z2 | %240
 !>![F,,F,]2 z2 z2 | [E,,E,]6- | [E,,E,]2 z2 z2 | [^F,,^F,]6 | !>![G,,G,]6 | [^F,,^F,]6 | %246
 [^F,,,^F,,]2 z2 z2 | [^F,,^F,]2 z2 z2 | !>![G,,G,]2 z2 z2 | [^F,,^F,]6 | !>![A,,A,]6 | %251
 [^G,,^G,]2 [^G,,,G,,]2 z2 | !>![B,,B,]6 | !>![^A,,^A,]2 [^A,,,A,,]2 z2 | !>![=C,=C]4 [B,,B,]2 | %255
 !>![_D,_D]4 [C,C]2 | [=D,=D]4 [^C,^C]2 | [D,,D,]4 [^C,,^C,]2 | (!///-!^C,,,3 ^C,,3) | %259
 (!///-!^C,,,3 ^C,,3) | (!///-!^C,,,3 ^C,,3) | (!///-!^C,,,3 ^C,,3) | (!///-!^C,,,3 ^C,,3) | %263
 (!///-!^C,,,3 ^C,,3) | (!///-!^C,,,3 ^C,,3) | (!///-!^C,,,3 ^C,,3) | (!///-!^C,,,3 ^C,,3) | %267
 (!///-!^C,,,3 ^C,,3) | [^C,,,^C,,]6- | [C,,,C,,]4- [C,,,C,,] z ||[K:G] [F,,,F,,]6- | %271
 [F,,,F,,]2 [^B,,,^B,,]2 [^C,,^C,]2 | [F,,,F,,]6- | [F,,,F,,]2 [D,,D,]2 [^C,,^C,]2 | %274
 [F,,,F,,]4"^cresc." [^C,,^C,]2 | [F,,,F,,]4 [^C,,^C,]2 | [F,,,F,,]2 [^C,,^C,]2 [F,,,F,,]2 | %277
 [^C,,^C,]2 [F,,,F,,]2 [C,,C,]2 | [B,,,B,,]6- | [B,,,B,,]2 [^E,,^E,]2 [F,,F,]2 | [B,,,B,,]6- | %281
 [B,,,B,,]2 [G,,G,]2 [F,,F,]2 | [B,,,B,,]4"^cresc." [F,,F,]2 | [B,,,B,,]4 [F,,F,]2 | %284
 [B,,,B,,]2 [F,,F,]2 [B,,,B,,]2 |!<(! [F,,F,]2 [B,,,B,,]2!<)! z2 | [E,,,E,,]2 z2 z2 | %287
 [B,,,B,,]2 z2 z2 | [E,,E,]2 z2 z2 | [B,,,B,,]2 z2 z2 | [E,,E,]2 z2 z2 | [B,,,B,,]2 z2 z2 | %292
 [F,,F,]2 z2 z2 | [B,,,B,,]2 z2 z2 | !>![=F,,=F,]6 | !>![E,,E,]6 | !>![^D,,^D,]6 | !>![=D,,=D,]6 | %298
 !>![^C,,^C,]6 | !>![=C,,=C,]6 | [B,,,B,,]2 z2 z2 | [B,,,,B,,,]6 | [E,,,E,,]2 z2 z2 | %303
 [B,,,B,,]2 z2 z2 | [E,,E,]2 z2 z2 | [B,,,B,,]2 z2 z2 | [E,,E,]2 z2 z2 | [B,,,B,,]2 z2 z2 | %308
 [F,,F,]2 z2 z2 | [F,,,F,,]2 (E,2 D,2 | ^C,2) (G,,F,,)F,,^C,, | F,,2 (E,2 D,2 | %312
 ^C,2) (G,,F,,)F,,^C,, | F,,2 (E,2 D,2 | ^C,2) (G,,2 F,,2 | E,,2 D,,2 ^C,,2) | [B,,,B,,]6 | %317
 [A,,,A,,]6 | G,,,6- | G,,,6- | G,,6- | G,,6 | G,,,6- | G,,,6- | G,,,6- | G,,,6 | C,,6- | %327
 z2 (^F,,G,,A,,G,,) | C,6 | z2 (F,,G,,A,,G,,) | C,6 | z2 (F,,G,,A,,G,,) | C,2 (F,,G,,A,,G,,) | %333
 C,2 (=B,,C,D,C, | .[B,,,B,,]2) z2 z2 | (G,F,E,B,,D,C, | .B,,2) .E,,2 .G,,2 | (B,,A,,G,,E,,C,,D,, | %338
 B,,,2) [A,,,A,,]2 [F,,,F,,]2 | (C,,B,,,^A,,,C,, B,,,2) | B,,,2 [A,,,A,,]2 F,,,2 | %341
 C,,B,,,^A,,,C,, B,,,2 | (C,B,,^A,,C, B,,2) | (B,,=A,,^G,,B,, A,,2) | (A,,=G,,F,,A,, G,,2) | %345
 (G,,F,,^E,,F,, C,,2) | (B,,,^C,,^D,,=E,,F,,G,, | A,,B,,^C,^D,E,F, | .G,2) .E,2 .C,2 | %349
 .A,,2 .F,,2 .[B,,,B,,]2 | .[E,,,E,,]2 z2 z2 | [B,,,B,,]2 z2 z2 | [E,,E,]2 z2 z2 | %353
 [B,,,B,,]2 z2 z2 | [E,,E,]2 z2 z2 | [B,,,B,,]2 z2 z2 | [F,,F,]2 z2 z2 | [B,,,B,,]2 z2 z2 | %358
 !>![=F,,=F,]6 | !>![E,,E,]6 | !>![^D,,^D,]6 | !>![=D,,=D,]6 | !>![^C,,^C,]6 | !>![=C,,=C,]6 | %364
 [B,,,B,,]2 z2 z2 | [B,,,,B,,,]6 | [E,,,E,,]2 z2 z2 | [B,,,B,,]2 z2 z2 | [E,,E,]2 z2 z2 | %369
 [B,,,B,,]2 z2 z2 | [E,,E,]2 z2 z2 | [B,,,B,,]2 z2 z2 | [F,,F,]2 z2 z2 | [B,,,B,,]2 z2 z2 | %374
 .[A,,,A,,]2 .[F,,,F,,]2 .[A,,,A,,]2 | .[G,,,G,,]2 .[E,,,E,,]2 .[G,,,G,,]2 | %376
 .[^D,,^D,]2 .[B,,,B,,]2 .[D,,D,]2 | .[E,,E,]2 .[G,,G,]2 .[E,,E,]2 | (C,A,,) .F,,2 .F,,2 | %379
 (A,,F,,) .^D,,2 .D,,2 | (F,,^D,,) B,,,2 [B,,,B,,]2 | (_B,,A,,C,B,,) B,,2 | %382
 [E,,=B,,E,]2 [E,,B,,E,]4 | (_B,,A,,C,B,, B,,2) | [E,,=B,,E,]2 [E,,B,,E,]4 | [A,,,A,,]2 z2 z2 | %386
 [B,,,B,,]2 z2 z2 | [B,,,B,,]2 z2 z2 | [E,,B,,]6 | [G,,,G,,]2 [G,,,G,,]4 | (G,,F,,A,,G,, G,,2) | %391
 [G,,,G,,]2 [G,,,G,,]4 | (G,,F,,A,,G,, G,,2) | [^A,,,^A,,]2 z2 z2 | [B,,,B,,]2 z2 z2 | %395
 [B,,,B,,]2 z2 [B,,,B,,]2 | [E,,E,]2 z2 z2 | [B,,,B,,]2 z2 z2 | [E,,E,]2 z2 z2 | [B,,,B,,]2 z2 z2 | %400
 [E,,B,,]2 z2 z2 | z2 (F,G,A,(G,) | .B,2) (^D,E,F,(E,) | .G,2) (^A,,B,,C,(B,,) | %404
 .[E,,B,,E,]2) z2 .[E,,B,,E,]2 | z2 .[E,,B,,E,]2 z2 | .[E,,B,,E,]2 z2 .[E,,B,,E,]2 | %407
 z2 .[E,,B,,E,]2 z2 | z2 [E,,B,,E,]4 | [E,,B,,E,]4 [E,,B,,E,]2 | [E,,,E,,]6- | [E,,,E,,]6- | %412
 [E,,,E,,]2 z2 z2 |] %413
V:7
 x6 | x6 | x6 | x6 | x6 | x6 | x6 | x6 | x6 | x6 | x6 | x6 | x6 | x6 | x6 | x6 | x6 | x6 | x6 | %19
 x6 | x6 | x6 | x6 | x6 | x6 | x6 | x6 | x6 | x6 | x6 | x6 | x6 | x6 | x6 | x6 | x6 | x6 | x6 | %38
 x6 | x6 | x6 | x6 | x6 | x6 | x6 | x6 | x6 | x6 | x6 | x6 | x6 | x6 | x6 | x6 | x6 | x6 | x6 | %57
 x6 | x6 | x6 | x6 | x6 | x6 | x6 | x6 | x6 | x6 | x6 | x6 | x6 | x6 | x6 | x6 | x6 | x6 | x6 | %76
 x6 | x6 | x6 | x6 | x6 | G,,,6- | G,,,6- | G,,,6- | x6 | G,,,6 | G,,,6- | G,,,6 | x6 | C,,6- | %90
 C,,6- | C,,6- | C,,6- | C,,6 | C,,6- | C,,2 x4 | x6 | x6 | x6 | x6 | x6 | x6 | x6 | x6 | x6 | x6 | %106
 x6 | x6 | x6 | x6 | x6 | x6 | x6 | x6 | x6 | x6 | x6 | x6 | x6 | x6 | x6 | x6 | x6 | x6 | x6 | %125
 x6 | x6 | x6 | x6 | x6 | x6 | x6 | x6 | x6 | x6 | x6 | x6 | x6 | x6 | x6 | x6 | x6 | x6 | x6 | %144
 x6 | x6 | x6 ||[K:C] x6 | x6 | x6 | x6 | x6 | x6 | x6 | x6 | x6 | x6 | x6 | x6 | x6 | x6 | x6 | %162
 x6 | x6 | x6 | x6 | x6 | x6 | x6 | x6 | x6 | x6 | x6 | x6 | x6 | x6 | x6 | x6 | x6 | x6 | x6 | %181
 x6 | x6 | x6 | x6 | x6 | x6 | x6 | x6 | x6 | x6 | x6 | x6 | x6 | x6 | x6 | x6 | x6 | x6 | x6 | %200
 x6 | x6 | x6 | x6 | x6 | x6 | x6 | x6 | x6 | x6 | x6 | x6 | x6 | x6 | x6 | x6 | x6 | x6 | x6 | %219
 x6 | x6 | x6 | x6 | x6 | x6 | x6 | x6 | x6 | x6 | x6 | x6 | x6 | x6 | x6 | x6 | x6 | x6 | x6 | %238
 x6 | x6 | x6 | x6 | x6 | x6 | x6 | x6 | x6 | x6 | x6 | x6 | x6 | x6 | x6 | x6 | x6 | x6 | x6 | %257
 x6 | x6 | x6 | x6 | x6 | x6 | x6 | x6 | x6 | x6 | x6 | x6 | x6 ||[K:G] x6 | x6 | x6 | x6 | x6 | %275
 x6 | x6 | x6 | x6 | x6 | x6 | x6 | x6 | x6 | x6 | x6 | x6 | x6 | x6 | x6 | x6 | x6 | x6 | x6 | %294
 x6 | x6 | x6 | x6 | x6 | x6 | x6 | x6 | x6 | x6 | x6 | x6 | x6 | x6 | x6 | x6 | x6 | x6 | x6 | %313
 x6 | x6 | x6 | x6 | x6 | x6 | z2 (^C,,D,,E,,D,,) | G,,,6- | G,,,6 | x6 | z2 (^C,,D,,E,,D,,) | %324
 G,,6- | G,,6 | x6 | C,,6- | C,,6- | C,,6 | C,,6- | C,,6 | C,,6 | C,,2 x4 | x6 | x6 | x6 | x6 | %338
 x6 | x6 | x4 F,,2 | x6 | x6 | x6 | x6 | x6 | x6 | x6 | x6 | x6 | x6 | x6 | x6 | x6 | x6 | x6 | %356
 x6 | x6 | x6 | x6 | x6 | x6 | x6 | x6 | x6 | x6 | x6 | x6 | x6 | x6 | x6 | x6 | x6 | x6 | x6 | %375
 x6 | x6 | x6 | x6 | x6 | x6 | C,,6 | x6 | C,,6 | x6 | x6 | x6 | x6 | x6 | x6 | C,,6 | x6 | C,,6 | %393
 x6 | x6 | x6 | x6 | x6 | x6 | x6 | x6 | x6 | x6 | x6 | x6 | x6 | x6 | x6 | x6 | x6 | x6 | x6 | %412
 x6 |] %413
V:8
 x6 | x6 | x6 | x6 | x6 | x6 | x6 | x6 | x2[K:treble] x4 | x6 | x6 | x6 | x6 | x6 | x6 | x6 | %16
 x2[K:bass] x4 | x6 | x6 | x6 | x6 | x6 | x6 | x6 | x6 | x6 | x6 | x6 | x6 | x6 | x6 | x6 | x6 | %33
 x6 | x6 | x6 | x6 | x6 | x6 | x6 | x6 | x6 | x6 | x6 | x6 | x6 | x6 | x6 | x6 | x6 | x6 | x6 | %52
 x6 | x6 | x6 | x6 | x6 | x6 | x6 | x6 | x6 | x6 | x6 | x6 | x6 | x6 | x6 | x6 | x6 | x6 | x6 | %71
 x6 | x6 | x6 | x6 | x6 | x6 | x6 | x6 | x6 | x6 | x6 | x6 | x6 | x6 | x6 | x6 | x6 | x6 | x6 | %90
 x6 | x6 | x6 | x6 | x6 | x6 | x6 | x6 | x6 | x6 | x6 | x6 | x6 | x6 | x6 | x6 | x6 | x6 | x6 | %109
 x6 | x6 | x4[K:treble] x2 | x2[K:bass] x4 | x6 | x6 | x6 | x6 | x6 | x6 | x6 | x6 | x6 | x6 | x6 | %124
 x6 | x6 | x6 | x6 | x6 | x6 | x6 | x6 | x6 | x6 | x6 | x6 | x6 | x6 | x6 | x6 | x6 | x6 | x6 | %143
 x6 | x6 | x6 | x6 ||[K:C] [E,E]6 | [E,E]4 [A,A]2 | z2 [CE]2 [CE]2 | x6 | x6 | x4[K:treble] x2 | %153
 z2 [EA]2 [EA]2 | x6 | x6 | x6 | x6 | x6 |[K:bass] x6 | x6 | x6 | x6 | x6 | x6 | x6 | x6 | x6 | %168
 x6 | x6 | x6 | z2 [E,^G,]4 | z2 [^F,A,]4 | z2 [E,^G,]4 | x6 | x6 | x6 | x6 | x2[K:treble] x4 | %179
 z2 [^GB]2 [GB]2 | [Dd]4 [^G^g]2 | z2!>(! [Bd]2 [Bd]2!>)! | x6 | x6 | x6 | x6 | x6 | %187
 z2 [^A^c]2 [Ac]2 | [Ee]4 [^A^a]2 | [^A^a]6 | x6 |[K:bass] x6 | x6 | x6 | x6 | x2 (DEDE) | %196
 z2!>(! [B,D]2 [B,D]2-!>)! | [B,D]2 B,4 | z2!>(! [B,D]2 [B,D]2!>)! | x6 | x6 | %201
[K:treble] ^C2 B,2 A,2- | A,2 [A,^C]2 [A,C]2 | x2[K:bass] x4 | x6 | [E,E]6 | x6 | x6 | x6 | %209
 [B,,B,]6 | x6 | [B,,B,]6- | [B,,B,]6- | [B,,B,]6- | [B,,B,]6 | x6 | x6 | x6 | x6 | [E,E]6 | %220
 [E,E]4 [A,A]2 | z2 [CE]2 [CE]2 | x6 | x6 | [A,C]2 x2[K:treble] x2 | z2 [EA]2 [EA]2 | x2 ^D4 | E6 | %228
 x6 | E6 | x2[K:bass] x4 | x6 | x6 | x6 | x2[K:treble] x4 | [Dd]6 | [Dd]4 [^G^g]2 | [^G^g]6 | x6 | %239
 x6 | x6 | x6 | x6 | [Ee]6 | [Ee]4 [^A^a]2 | [^A^a]6 | x6 | x6 | x6 | x6 | x6 | x6 | x6 | x6 | x6 | %255
 x6 | x6 | x2[K:bass] x4 | x6 | x6 | x6 | x6 | x6 | x6 | x6 | x6 | x6 | x6 | x6 | x6 ||[K:G] x6 | %271
 x6 | x6 | x6 | x2[K:treble] x4 | x6 | x6 | x6 | x6 | x6 | x6 | x6 | x6 | x6 | x6 | x6 | %286
[K:bass] x6 | x6 | x6 | x6 | x6 | x6 | x6 | x6 | x6 | x6 | x6 | x6 | x6 | x6 | x6 | x6 | x6 | x6 | %304
 x6 | x6 | x6 | x6 | x6 | x6 | x6 | x6 | x6 | x6 | x6 | x6 | x6 | x6 | x6 | x6 | x6 | x6 | x6 | %323
 x6 | x6 | x6 | x6 | x6 | x6 | x6 | x6 | x6 | x6 | x6 | x6 | x6 | x6 | x6 | x6 | x6 | x6 | x6 | %342
 x6 | x6 | x6 | x6 | x6 | x6 | x6 | x4[K:treble] x2 | x2[K:bass] x4 | x6 | x6 | x6 | x6 | x6 | x6 | %357
 x6 | x6 | x6 | x6 | x6 | x6 | x6 | x6 | x6 | x6 | x6 | x6 | x6 | x6 | x6 | x6 | x6 | x6 | x6 | %376
 x6 | x6 | x6 | x6 | x6 | E,6 | x6 | E,6 | x6 | x6 | x6 | x6 | x6 | x6 | E,6 | x6 | E,6 | x6 | x6 | %395
 x6 | x6 | x6 | x6 | x6 | x6 | x2[K:treble] x4 | x6 | x2[K:bass] x4 | x6 | x6 | x6 | x6 | x6 | x6 | %410
 x6 | x6 | x6 |] %413

